assets/features/channel/other/HBL.svg

<svg width="80" height="80" viewBox="0 0 80 80" fill="none" xmlns="http://www.w3.org/2000/svg">
<rect width="80" height="80" rx="8" fill="#029791"/>
<path d="M12.3657 30.3999H8V49.2037H12.3657V30.3999Z" fill="white"/>
<path d="M23.1073 30.4299V37.6303H17.3524L13.5479 41.4691H23.1373V49.2037H27.503V30.3999H23.1373L23.1073 30.4299Z" fill="white"/>
<path d="M48.3351 39.1368C50.0184 38.1914 50.5495 36.8918 50.4895 35.121C50.4324 32.939 49.1333 30.4868 45.2086 30.4868H32.0486V49.2906H45.8267C51.4046 49.1435 53.6069 41.0547 48.3351 39.1368ZM44.8516 45.923L36.5043 45.992V33.9684H44.5665C45.0308 34.0009 45.4641 34.2137 45.7736 34.5614C46.0831 34.9092 46.2443 35.3642 46.2228 35.8293C46.2228 37.5881 44.2905 37.7592 44.2905 37.7592H41.305L37.6445 41.553L44.8156 41.4149C44.6446 41.4479 47.0029 41.688 47.0029 43.771C47.0029 45.854 44.8516 45.923 44.8516 45.923Z" fill="white"/>
<path d="M62.4106 45.4818H59.137V30.5469H54.8284V49.3206H54.8584H62.4406H68.1955L72 45.4818H62.4106Z" fill="white"/>
</svg>

<svg xmlns="http://www.w3.org/2000/svg" width="80" height="80" fill="none" viewBox="0 0 80 80"><rect width="80" height="80" fill="#029791" rx="8"/><path fill="#fff" d="M12.366 30.4H8v18.804h4.366zm10.741.03v7.2h-5.755l-3.804 3.84h9.59v7.734h4.365V30.4h-4.366zm25.228 8.707c1.683-.946 2.215-2.245 2.154-4.016-.057-2.182-1.356-4.634-5.28-4.634h-13.16V49.29h13.778c5.578-.147 7.78-8.236 2.508-10.154m-3.483 6.786-8.348.069V33.968h8.063a1.783 1.783 0 0 1 1.656 1.861c0 1.76-1.932 1.93-1.932 1.93h-2.986l-3.66 3.794 7.17-.138c-.17.033 2.188.273 2.188 2.356s-2.151 2.152-2.151 2.152m17.558-.441h-3.273V30.547h-4.309V49.32h13.367L72 45.48z"/></svg>
